X: 37019
T: Sifulot
R: jig
M: 6/8
K: Gmajor
|:Bc|dzd dBd|e2f gfg|d2A AGF|A2G GBc|
dBd dBd|efg gfe|e2d dBA|1 G3 G:|2 G3 G2B||
BAB BAB|cBc cBc|efe fef|a2g gBc|
dBd dBd|efg gfe|e2d dBA|1 G3 G2B:|2 G3 G2||

